;FLAVOR:RepRap
;TIME:58968
;Filament used: 39.5595m
;Layer height: 0.2
;Generated with Cura_SteamEngine 0.0.0-master
M190 S60
M104 S200
M109 S200
G21 ;metric values
 G90 ;absolute positioning
 M82 ;set extruder to absolute mode
 M107 ;start with the fan off
 G28 X0 Y0 ;move X/Y to min endstops
 G28 Z0 ;move Z to min endstops
 G1 Z15.0 F{travel_speed} ;move the platform down 15mm
 G92 E0 ;zero the extruded length
 G1 F200 E6 ;extrude 6 mm of feed stock
 G92 E0 ;zero the extruded length again
 G1 F{travel_speed} 
 ;Put printing message on LCD screen
 M117 Printing...
;LAYER_COUNT:118
;LAYER:-6
M107
G0 F3600 X40.277 Y27.776 Z0.18
G1 F675 X41.028 Y26.752 E0.07603
G1 X41.444 Y26.254 E0.11487
G1 X43.878 Y23.48 E0.33581
G1 X44.517 Y22.796 E0.39185
G1 X45.24 Y22.121 E0.45107
G1 X47.973 Y19.724 E0.6687
G1 X47.973 Y19.723 E0.66876
G1 X48.475 Y19.302 E0.70799
G1 X49.514 Y18.54 E0.78513
G1 X52.535 Y16.521 E1.00266
G1 X53.461 Y15.951 E1.06776
G1 X54.142 Y15.588 E1.11396
G1 X54.21 Y15.554 E1.11851
G1 X57.494 Y13.934 E1.33774
G1 X58.706 Y13.404 E1.41694
G1 X59.286 Y13.194 E1.45387
G1 X62.743 Y12.021 E1.67242
G1 X62.807 Y11.999 E1.67647
G1 X62.807 Y12 E1.67653
G1 X63.86 Y11.691 E1.74223
G1 X64.586 Y11.526 E1.7868
G1 X68.173 Y10.811 E2.00578
G1 X68.811 Y10.698 E2.04457
G1 X68.814 Y10.697 E2.04476
G1 X68.814 Y10.698 E2.04482
G1 X70.1 Y10.558 E2.12226
G1 X73.75 Y10.319 E2.34125
G1 X74.698 Y10.288 E2.39803
G1 X74.714 Y10.288 E2.39899
G1 X75.662 Y10.319 E2.45578
G1 X79.312 Y10.558 E2.67476
G1 X80.598 Y10.698 E2.75221
G1 X80.598 Y10.697 E2.75227
G1 X80.601 Y10.698 E2.75246
G1 X81.238 Y10.811 E2.79119
G1 X84.833 Y11.527 E3.01064
G1 X85.87 Y11.773 E3.07445
G1 X86.585 Y11.992 E3.11922
G1 X86.676 Y12.022 E3.12495
G1 X86.676 Y12.023 E3.12501
G1 X90.147 Y13.2 E3.34444
G1 X90.678 Y13.392 E3.37824
G1 X90.696 Y13.399 E3.3794
G1 X91.918 Y13.934 E3.45926
G1 X95.19 Y15.548 E3.67769
G1 X95.259 Y15.583 E3.68232
G1 X96.225 Y16.11 E3.7482
G1 X96.874 Y16.52 E3.79416
G1 X99.898 Y18.54 E4.01187
G1 X100.937 Y19.302 E4.08901
G1 X101.441 Y19.725 E4.12841
G1 X101.441 Y19.726 E4.12847
G1 X104.327 Y22.257 E4.35828
G1 X104.907 Y22.807 E4.40613
G1 X279.53 Y197.428 E19.19076
G1 X280.542 Y198.548 E19.28113
G1 X280.896 Y199.002 E19.3156
G1 X280.997 Y199.137 E19.32569
G1 X281.588 Y199.987 E19.38767
G1 X282.37 Y201.362 E19.48237
G1 X282.372 Y201.365 E19.48259
G1 X282.823 Y202.357 E19.54783
G1 X283.272 Y203.607 E19.62734
G1 X283.31 Y203.729 E19.63499
G1 X283.593 Y204.78 E19.70016
G1 X283.762 Y205.636 E19.75239
G1 X283.768 Y205.672 E19.75458
G1 X283.905 Y206.731 E19.81851
G1 X283.968 Y208.096 E19.90031
G1 X283.968 Y208.203 E19.90672
G1 X283.929 Y209.264 E19.97028
G1 X283.769 Y210.606 E20.05119
G1 X283.765 Y210.626 E20.05242
G1 X283.548 Y211.687 E20.11725
G1 X283.302 Y212.571 E20.17218
G1 X283.258 Y212.712 E20.18103
G1 X282.833 Y213.892 E20.25611
G1 X282.385 Y214.884 E20.32128
G1 X281.738 Y216.048 E20.40101
G1 X281.72 Y216.078 E20.4031
G1 X280.949 Y217.211 E20.48515
G1 X280.273 Y218.046 E20.54947
G1 X279.578 Y218.793 E20.61055
G1 X240.589 Y257.789 E23.91191
G1 X239.488 Y258.784 E24.00075
G1 X238.938 Y259.215 E24.04259
G1 X238.837 Y259.29 E24.05012
G1 X237.961 Y259.892 E24.11375
G1 X237.383 Y260.241 E24.15418
G1 X237.376 Y260.245 E24.15466
G1 X236.403 Y260.755 E24.22043
G1 X235.687 Y261.075 E24.26738
G1 X235.646 Y261.091 E24.27001
G1 X234.275 Y261.582 E24.3572
G1 X233.23 Y261.86 E24.42194
G1 X232.271 Y262.042 E24.48037
G1 X232.152 Y262.061 E24.48759
G1 X231.088 Y262.188 E24.55174
G1 X229.878 Y262.237 E24.62424
G1 X229.863 Y262.237 E24.62514
G1 X228.784 Y262.197 E24.68978
G1 X227.572 Y262.057 E24.76282
G1 X227.428 Y262.035 E24.77155
G1 X226.393 Y261.83 E24.83471
G1 X225.4 Y261.56 E24.89632
G1 X225.347 Y261.544 E24.89963
G1 X224.377 Y261.202 E24.96121
G1 X223.008 Y260.585 E25.05111
G1 X222.936 Y260.548 E25.05596
G1 X221.972 Y260.008 E25.12211
G1 X221.25 Y259.538 E25.17368
G1 X221.247 Y259.536 E25.1739
G1 X220.385 Y258.891 E25.23835
G1 X219.232 Y257.854 E25.33119
G1 X44.191 Y82.821 E40.15096
G1 X41.443 Y79.687 E40.4005
G1 X41.031 Y79.194 E40.43896
G1 X41.022 Y79.182 E40.43986
G1 X40.276 Y78.164 E40.51542
G1 X38.244 Y75.121 E40.73448
G1 X37.691 Y74.225 E40.79752
G1 X37.328 Y73.543 E40.84377
G1 X37.326 Y73.538 E40.8441
G1 X37.289 Y73.466 E40.84894
G1 X35.665 Y70.175 E41.06865
G1 X35.14 Y68.973 E41.14718
G1 X35.132 Y68.952 E41.14852
G1 X35.131 Y68.952 E41.14858
G1 X34.926 Y68.383 E41.18479
G1 X33.755 Y64.93 E41.40308
G1 X33.631 Y64.546 E41.42724
G1 X33.255 Y63.059 E41.51906
G1 X32.546 Y59.495 E41.73662
G1 X32.434 Y58.862 E41.7751
G1 X32.294 Y57.576 E41.85255
G1 X32.055 Y53.927 E42.07147
G1 X32.024 Y52.994 E42.12736
G1 X32.024 Y52.961 E42.12934
G1 X32.055 Y52.015 E42.186
G1 X32.294 Y48.365 E42.40499
G1 X32.434 Y47.079 E42.48244
G1 X32.546 Y46.446 E42.52092
G1 X33.255 Y42.882 E42.73847
G1 X33.631 Y41.395 E42.8303
G1 X33.755 Y41.011 E42.85446
G1 X34.926 Y37.558 E43.07275
G1 X35.137 Y36.975 E43.10986
G1 X35.146 Y36.951 E43.1114
G1 X35.66 Y35.776 E43.18818
G1 X37.29 Y32.473 E43.40869
G1 X37.314 Y32.425 E43.41191
G1 X37.845 Y31.452 E43.47827
G1 X38.255 Y30.803 E43.52423
G1 X40.277 Y27.776 E43.74216
G0 F3600 X40 Y28.19
G1 F675 X40 Y77.75 E46.70923
G0 F3600 X41.6 Y79.866
G1 F675 X41.6 Y26.076 E49.92954
G0 F3600 X43.2 Y24.252
G1 F675 X43.2 Y81.69 E53.36826
G0 F3600 X44.8 Y83.429
G1 F675 X44.8 Y22.531 E57.01411
G0 F3600 X46.4 Y21.103
G1 F675 X46.4 Y85.029 E60.84125
G0 F3600 X48 Y86.629
G1 F675 X48 Y19.7 E64.84817
G0 F3600 X49.6 Y18.482
G1 F675 X49.6 Y88.229 E69.0238
G0 F3600 X51.2 Y89.829
G1 F675 X51.2 Y17.413 E73.35922
G0 F3600 X52.8 Y16.357
G1 F675 X52.8 Y91.429 E77.85365
G0 F3600 X54.4 Y93.029
G1 F675 X54.4 Y15.46 E82.49757
G0 F3600 X56 Y14.67
G1 F675 X56 Y94.629 E87.28457
G0 F3600 X57.6 Y96.229
G1 F675 X57.6 Y13.887 E92.21424
G0 F3600 X59.2 Y13.225
G1 F675 X59.2 Y97.829 E97.27934
G0 F3600 X60.8 Y99.429
G1 F675 X60.8 Y12.68 E102.47285
G0 F3600 X62.4 Y12.137
G1 F675 X62.4 Y101.029 E107.79465
G0 F3600 X64 Y102.629
G1 F675 X64 Y11.659 E113.24087
G0 F3600 X65.6 Y11.323
G1 F675 X65.6 Y104.229 E118.80299
G0 F3600 X67.2 Y105.828
G1 F675 X67.2 Y11.004 E124.47993
G0 F3600 X68.8 Y10.699
G1 F675 X68.8 Y107.428 E130.27093
G0 F3600 X70.4 Y109.028
G1 F675 X70.4 Y10.538 E136.16735
G0 F3600 X72 Y10.433
G1 F675 X72 Y110.628 E142.16585
G0 F3600 X73.6 Y112.228
G1 F675 X73.6 Y10.328 E148.26642
G0 F3600 X75.2 Y10.304
G1 F675 X75.2 Y113.828 E154.46422
G0 F3600 X76.8 Y115.428
G1 F675 X76.8 Y10.394 E160.75243
G0 F3600 X78.4 Y10.499
G1 F675 X78.4 Y117.028 E167.13013
G0 F3600 X80 Y118.628
G1 F675 X80 Y10.633 E173.5956
G0 F3600 X81.6 Y10.884
G1 F675 X81.6 Y120.228 E180.14183
G0 F3600 X83.2 Y121.828
G1 F675 X83.2 Y11.202 E186.76482
G0 F3600 X84.8 Y11.521
G1 F675 X84.8 Y123.428 E193.46449
G0 F3600 X86.4 Y125.028
G1 F675 X86.4 Y11.936 E200.23511
G0 F3600 X88 Y12.472
G1 F675 X88 Y126.627 E207.06937
G0 F3600 X89.6 Y128.227
G1 F675 X89.6 Y13.015 E213.96691
G0 F3600 X91.2 Y13.62
G1 F675 X91.2 Y129.827 E220.92402
G0 F3600 X92.8 Y131.427
G1 F675 X92.8 Y14.37 E227.93202
G0 F3600 X94.4 Y15.159
G1 F675 X94.4 Y133.027 E234.98857
G0 F3600 X96 Y134.627
G1 F675 X96 Y15.988 E242.09128
G0 F3600 X97.6 Y17.005
G1 F675 X97.6 Y136.227 E249.22889
G0 F3600 X99.2 Y137.827
G1 F675 X99.2 Y18.074 E256.39829
G0 F3600 X100.8 Y19.202
G1 F675 X100.8 Y139.427 E263.59595
G0 F3600 X102.4 Y141.027
G1 F675 X102.4 Y20.568 E270.80762
G0 F3600 X104 Y21.971
G1 F675 X104 Y142.627 E278.03108
G0 F3600 X105.6 Y144.227
G1 F675 X105.6 Y23.5 E285.25879
G0 F3600 X107.2 Y25.1
G1 F675 X107.2 Y145.827 E292.48651
G0 F3600 X108.8 Y147.427
G1 F675 X108.8 Y26.7 E299.71422
G0 F3600 X110.4 Y28.3
G1 F675 X110.4 Y149.026 E306.94187
G0 F3600 X112 Y150.626
G1 F675 X112 Y29.9 E314.16953
G0 F3600 X113.6 Y31.5
G1 F675 X113.6 Y152.226 E321.39718
G0 F3600 X115.2 Y153.826
G1 F675 X115.2 Y33.1 E328.62484
G0 F3600 X116.8 Y34.7
G1 F675 X116.8 Y155.426 E335.85249
G0 F3600 X118.4 Y157.026
G1 F675 X118.4 Y36.3 E343.08014
G0 F3600 X120 Y37.9
G1 F675 X120 Y158.626 E350.3078
G0 F3600 X121.6 Y160.226
G1 F675 X121.6 Y39.5 E357.53545
G0 F3600 X123.2 Y41.1
G1 F675 X123.2 Y161.826 E364.7631
G0 F3600 X124.8 Y163.426
G1 F675 X124.8 Y42.7 E371.99076
G0 F3600 X126.4 Y44.3
G1 F675 X126.4 Y165.026 E379.21841
G0 F3600 X128 Y166.626
G1 F675 X128 Y45.9 E386.44606
G0 F3600 X129.6 Y47.5
G1 F675 X129.6 Y168.226 E393.67372
G0 F3600 X131.2 Y169.826
G1 F675 X131.2 Y49.1 E400.90137
G0 F3600 X132.8 Y50.7
G1 F675 X132.8 Y171.425 E408.12896
G0 F3600 X134.4 Y173.025
G1 F675 X134.4 Y52.3 E415.35656
G0 F3600 X136 Y53.9
G1 F675 X136 Y174.625 E422.58415
G0 F3600 X137.6 Y176.225
G1 F675 X137.6 Y55.5 E429.81175
G0 F3600 X139.2 Y57.1
G1 F675 X139.2 Y177.825 E437.03934
G0 F3600 X140.8 Y179.425
G1 F675 X140.8 Y58.7 E444.26693
G0 F3600 X142.4 Y60.3
G1 F675 X142.4 Y181.025 E451.49453
G0 F3600 X144 Y182.625
G1 F675 X144 Y61.9 E458.72212
G0 F3600 X145.6 Y63.5
G1 F675 X145.6 Y184.225 E465.94971
G0 F3600 X147.2 Y185.825
G1 F675 X147.2 Y65.1 E473.17731
G0 F3600 X148.8 Y66.7
G1 F675 X148.8 Y187.425 E480.4049
G0 F3600 X150.4 Y189.025
G1 F675 X150.4 Y68.3 E487.63249
G0 F3600 X152 Y69.9
G1 F675 X152 Y190.625 E494.86009
G0 F3600 X153.6 Y192.224
G1 F675 X153.6 Y71.5 E502.08762
G0 F3600 X155.2 Y73.1
G1 F675 X155.2 Y193.824 E509.31516
G0 F3600 X156.8 Y195.424
G1 F675 X156.8 Y74.7 E516.54269
G0 F3600 X158.4 Y76.3
G1 F675 X158.4 Y197.024 E523.77022
G0 F3600 X160 Y198.624
G1 F675 X160 Y77.9 E530.99776
G0 F3600 X161.6 Y79.5
G1 F675 X161.6 Y200.224 E538.22529
G0 F3600 X163.2 Y201.824
G1 F675 X163.2 Y81.1 E545.45282
G0 F3600 X164.8 Y82.7
G1 F675 X164.8 Y203.424 E552.68036
G0 F3600 X166.4 Y205.024
G1 F675 X166.4 Y84.3 E559.90789
G0 F3600 X168 Y85.9
G1 F675 X168 Y206.624 E567.13543
G0 F3600 X169.6 Y208.224
G1 F675 X169.6 Y87.5 E574.36296
G0 F3600 X171.2 Y89.1
G1 F675 X171.2 Y209.824 E581.59049
G0 F3600 X172.8 Y211.424
G1 F675 X172.8 Y90.7 E588.81803
G0 F3600 X174.4 Y92.3
G1 F675 X174.4 Y213.024 E596.04556
G0 F3600 X176 Y214.623
G1 F675 X176 Y93.9 E603.27303
G0 F3600 X177.6 Y95.5
G1 F675 X177.6 Y216.223 E610.50051
G0 F3600 X179.2 Y217.823
G1 F675 X179.2 Y97.1 E617.72798
G0 F3600 X180.8 Y98.7
G1 F675 X180.8 Y219.423 E624.95546
G0 F3600 X182.4 Y221.023
G1 F675 X182.4 Y100.3 E632.18293
G0 F3600 X184 Y101.9
G1 F675 X184 Y222.623 E639.4104
G0 F3600 X185.6 Y224.223
G1 F675 X185.6 Y103.5 E646.63788
G0 F3600 X187.2 Y105.1
G1 F675 X187.2 Y225.823 E653.86535
G0 F3600 X188.8 Y227.423
G1 F675 X188.8 Y106.7 E661.09283
G0 F3600 X190.4 Y108.3
G1 F675 X190.4 Y229.023 E668.3203
G0 F3600 X192 Y230.623
G1 F675 X192 Y109.9 E675.54777
G0 F3600 X193.6 Y111.499
G1 F675 X193.6 Y232.223 E682.77531
G0 F3600 X195.2 Y233.823
G1 F675 X195.2 Y113.099 E690.00284
G0 F3600 X196.8 Y114.699
G1 F675 X196.8 Y235.423 E697.23038
G0 F3600 X198.4 Y237.022
G1 F675 X198.4 Y116.299 E704.45785
G0 F3600 X200 Y117.899
G1 F675 X200 Y238.622 E711.68532
G0 F3600 X201.6 Y240.222
G1 F675 X201.6 Y119.499 E718.9128
G0 F3600 X203.2 Y121.099
G1 F675 X203.2 Y241.822 E726.14027
G0 F3600 X204.8 Y243.422
G1 F675 X204.8 Y122.699 E733.36774
G0 F3600 X206.4 Y124.299
G1 F675 X206.4 Y245.022 E740.59522
G0 F3600 X208 Y246.622
G1 F675 X208 Y125.899 E747.82269
G0 F3600 X209.6 Y127.499
G1 F675 X209.6 Y248.222 E755.05017
G0 F3600 X211.2 Y249.822
G1 F675 X211.2 Y129.099 E762.27764
G0 F3600 X212.8 Y130.699
G1 F675 X212.8 Y251.422 E769.50511
G0 F3600 X214.4 Y253.022
G1 F675 X214.4 Y132.299 E776.73259
G0 F3600 X216 Y133.899
G1 F675 X216 Y254.622 E783.96006
G0 F3600 X217.6 Y256.222
G1 F675 X217.6 Y135.499 E791.18754
G0 F3600 X219.2 Y137.099
G1 F675 X219.2 Y257.822 E798.41501
G0 F3600 X220.8 Y259.201
G1 F675 X220.8 Y138.699 E805.62925
G0 F3600 X222.4 Y140.299
G1 F675 X222.4 Y260.247 E812.81033
G0 F3600 X224 Y261.032
G1 F675 X224 Y141.899 E819.94261
G0 F3600 X225.6 Y143.499
G1 F675 X225.6 Y261.614 E827.01395
G0 F3600 X227.2 Y261.989
G1 F675 X227.2 Y145.099 E834.01195
G0 F3600 X228.8 Y146.699
G1 F675 X228.8 Y262.197 E840.92661
G0 F3600 X230.4 Y262.216
G1 F675 X230.4 Y148.299 E847.74662
G0 F3600 X232 Y149.899
G1 F675 X232 Y262.08 E854.4627
G0 F3600 X233.6 Y261.762
G1 F675 X233.6 Y151.499 E861.06395
G0 F3600 X235.2 Y153.099
G1 F675 X235.2 Y261.251 E867.53882
G0 F3600 X236.8 Y260.547
G1 F675 X236.8 Y154.699 E873.87576
G0 F3600 X238.4 Y156.299
G1 F675 X238.4 Y259.591 E880.05967
G0 F3600 X240 Y258.322
G1 F675 X240 Y157.899 E886.07182
G0 F3600 X241.6 Y159.499
G1 F675 X241.6 Y256.778 E891.89574
G0 F3600 X243.2 Y255.178
G1 F675 X243.2 Y161.099 E897.52808
G0 F3600 X244.8 Y162.699
G1 F675 X244.8 Y253.578 E902.96885
G0 F3600 X246.4 Y251.977
G1 F675 X246.4 Y164.299 E908.21798
G0 F3600 X248 Y165.899
G1 F675 X248 Y250.377 E913.27553
G0 F3600 X249.6 Y248.777
G1 F675 X249.6 Y167.499 E918.1415
G0 F3600 X251.2 Y169.099
G1 F675 X251.2 Y247.177 E922.81589
G0 F3600 X252.8 Y245.576
G1 F675 X252.8 Y170.699 E927.29865
G0 F3600 X254.4 Y172.299
G1 F675 X254.4 Y243.976 E931.58982
G0 F3600 X256 Y242.376
G1 F675 X256 Y173.899 E935.68942
G0 F3600 X257.6 Y175.499
G1 F675 X257.6 Y240.775 E939.59738
G0 F3600 X259.2 Y239.175
G1 F675 X259.2 Y177.099 E943.31376
G0 F3600 X260.8 Y178.699
G1 F675 X260.8 Y237.575 E946.83856
G0 F3600 X262.4 Y235.975
G1 F675 X262.4 Y180.299 E950.17179
G0 F3600 X264 Y181.899
G1 F675 X264 Y234.374 E953.31337
G0 F3600 X265.6 Y232.774
G1 F675 X265.6 Y183.499 E956.26338
G0 F3600 X267.2 Y185.099
G1 F675 X267.2 Y231.174 E959.02181
G0 F3600 X268.8 Y229.573
G1 F675 X268.8 Y186.699 E961.5886
G0 F3600 X270.4 Y188.299
G1 F675 X270.4 Y227.973 E963.96381
G0 F3600 X272 Y226.373
G1 F675 X272 Y189.899 E966.14745
G0 F3600 X273.6 Y191.499
G1 F675 X273.6 Y224.773 E968.1395
G0 F3600 X275.2 Y223.172
G1 F675 X275.2 Y193.099 E969.93992
G0 F3600 X276.8 Y194.699
G1 F675 X276.8 Y221.572 E971.54876
G0 F3600 X278.4 Y219.972
G1 F675 X278.4 Y196.299 E972.96602
G0 F3600 X280 Y197.949
G1 F675 X280 Y218.34 E974.18679
G0 F3600 X281.6 Y216.255
G1 F675 X281.6 Y200.009 E975.15941
G0 F3600 X283.2 Y203.407
G1 F675 X283.2 Y212.874 E975.72619
G0 F3600 X38.4 Y75.354
G1 F675 X38.4 Y30.585 E978.40643
G0 F3600 X36.8 Y33.465
G1 F675 X36.8 Y72.475 E980.74189
G0 F3600 X35.2 Y69.11
G1 F675 X35.2 Y36.827 E982.67461
G0 F3600 X33.6 Y41.517
G1 F675 X33.6 Y64.423 E984.04596
G0 F3600 X40.276 Y27.775
;TIME_ELAPSED:1474.876577
;LAYER:-5
M140 S60
M107
G0 X40.276 Y27.775 Z0.48
;TYPE:SUPPORT
G1 F675 X39.8 Y28.487 E984.13141
G1 X254.844 Y243.531 E1014.47645
G1 X254.137 Y244.238 E1014.57621
G1 X39.234 Y29.335 E1044.90135
G1 X38.668 Y30.182 E1045.00299
G1 X253.43 Y244.945 E1075.3083
G1 X252.723 Y245.652 E1075.40807
G1 X38.106 Y31.035 E1105.69284
G1 X37.844 Y31.452 E1105.74198
G1 X37.584 Y31.927 E1105.79601
G1 X252.016 Y246.359 E1136.05469
G1 X251.309 Y247.066 E1136.15445
G1 X37.099 Y32.856 E1166.3818
G1 X36.631 Y33.803 E1166.4872
G1 X250.602 Y247.773 E1196.68075
G1 X249.895 Y248.48 E1196.78051
G1 X36.164 Y34.75 E1226.94019
G1 X35.697 Y35.697 E1227.04555
G1 X249.187 Y249.187 E1257.1713
G1 X248.48 Y249.895 E1257.27113
G1 X35.264 Y36.678 E1287.35828
G1 X35.146 Y36.95 E1287.38787
G1 X35.136 Y36.973 E1287.39037
G1 X34.925 Y37.557 E1287.45233
G1 X34.875 Y37.703 E1287.46773
G1 X247.774 Y250.602 E1317.51008
G1 X247.067 Y251.309 E1317.60984
G1 X34.517 Y38.76 E1347.60287
G1 X34.159 Y39.816 E1347.71413
G1 X246.36 Y252.017 E1377.65798
G1 X245.653 Y252.724 E1377.75775
G1 X33.801 Y40.872 E1407.65235
G1 X33.755 Y41.01 E1407.66687
G1 X33.631 Y41.394 E1407.70713
G1 X33.485 Y41.97 E1407.76642
G1 X244.946 Y253.431 E1437.60586
G1 X244.238 Y254.138 E1437.70569
G1 X33.208 Y43.108 E1467.4843
G1 X32.974 Y44.288 E1467.60434
G1 X243.531 Y254.845 E1497.3162
G1 X242.824 Y255.552 E1497.41597
G1 X32.739 Y45.467 E1527.06123
G1 X32.546 Y46.444 E1527.1606
G1 X32.509 Y46.651 E1527.18158
G1 X242.117 Y256.259 E1556.75954
G1 X241.41 Y256.966 E1556.8593
G1 X32.344 Y47.9 E1586.36077
G1 X32.294 Y48.363 E1586.40724
G1 X32.238 Y49.208 E1586.49174
G1 X240.703 Y257.673 E1615.9084
G1 X240.588 Y257.788 E1615.92463
G1 X239.965 Y258.35 E1616.00835
G1 X32.151 Y50.536 E1645.33315
G1 X32.064 Y51.863 E1645.46584
G1 X239.205 Y259.004 E1674.69568
G1 X238.937 Y259.214 E1674.72965
G1 X238.836 Y259.288 E1674.74214
