;FLAVOR:RepRap
;TIME:9472
;Filament used: 10.6843m
;Layer height: 0.25
;Generated with Cura_SteamEngine 0.0.0-master
M190 S60
M104 S200
M109 S200
G21 ;metric values
 G90 ;absolute positioning
 M82 ;set extruder to absolute mode
 M107 ;start with the fan off
 G28 X0 Y0 ;move X/Y to min endstops
 G28 Z0 ;move Z to min endstops
 G1 Z15.0 F{travel_speed} ;move the platform down 15mm
 G92 E0 ;zero the extruded length
 G1 F200 E6 ;extrude 6 mm of feed stock
 G92 E0 ;zero the extruded length again
 G1 F{travel_speed} 
 ;Put printing message on LCD screen
 M117 Printing...
;LAYER_COUNT:160
;LAYER:0
M107
M204 S1500
G0 F3600 X174.27 Y175.304 Z0.15
;TYPE:SKIRT
G1 F1350 X175.393 Y174.188 E0.03949
G1 X175.508 Y174.08 E0.04343
G1 X179.201 Y170.754 E0.16741
G1 X181.148 Y168.874 E0.23492
G1 X184.961 Y164.867 E0.3729
G1 X186.734 Y162.837 E0.44013
G1 X189.816 Y159.024 E0.56243
G1 X190.053 Y158.761 E0.57126
G1 X191.272 Y157.554 E0.61406
G1 X191.695 Y157.202 E0.62778
G1 X193.112 Y156.215 E0.67086
G1 X193.592 Y155.939 E0.68467
G1 X195.164 Y155.208 E0.72792
G1 X195.683 Y155.02 E0.74169
G1 X197.336 Y154.576 E0.78438
G1 X197.904 Y154.477 E0.79877
G1 X199.801 Y154.321 E0.84625
G1 X200.341 Y154.322 E0.85972
G1 X202.086 Y154.474 E0.90341
G1 X202.628 Y154.569 E0.91714
G1 X204.287 Y155.009 E0.95995
G1 X204.809 Y155.197 E0.97379
G1 X206.372 Y155.919 E1.01674
G1 X206.849 Y156.191 E1.03044
G1 X208.269 Y157.172 E1.07349
G1 X208.697 Y157.527 E1.08736
G1 X209.928 Y158.741 E1.13049
G1 X210.179 Y159.018 E1.13981
G1 X212.586 Y162.023 E1.23586
G1 X216.195 Y166.127 E1.37219
G1 X220.055 Y170.045 E1.50938
G1 X224.575 Y174.154 E1.66176
G1 X224.697 Y174.27 E1.66596
G1 X225.823 Y175.407 E1.70588
G1 X225.924 Y175.514 E1.70955
G1 X229.225 Y179.169 E1.8324
G1 X231.095 Y181.1 E1.89946
G1 X235.099 Y184.901 E2.03718
G1 X239.276 Y188.437 E2.17369
G1 X240.934 Y189.737 E2.22625
G1 X241.232 Y190.002 E2.2362
G1 X242.447 Y191.228 E2.27925
G1 X242.799 Y191.651 E2.29298
G1 X243.778 Y193.055 E2.33568
G1 X244.053 Y193.531 E2.34939
G1 X244.784 Y195.097 E2.3925
G1 X244.973 Y195.614 E2.40623
G1 X245.421 Y197.268 E2.44898
G1 X245.522 Y197.852 E2.46376
G1 X245.681 Y199.855 E2.51389
G1 X245.679 Y200.388 E2.52718
G1 X245.525 Y202.144 E2.57115
G1 X245.429 Y202.69 E2.58498
G1 X244.986 Y204.349 E2.62782
G1 X244.798 Y204.868 E2.64159
G1 X244.072 Y206.435 E2.68467
G1 X243.798 Y206.913 E2.69841
G1 X242.82 Y208.324 E2.74124
G1 X242.466 Y208.751 E2.75507
G1 X241.238 Y209.993 E2.79864
G1 X240.959 Y210.244 E2.808
G1 X237.948 Y212.648 E2.90411
G1 X233.824 Y216.267 E3.04098
G1 X229.927 Y220.097 E3.17728
G1 X225.839 Y224.582 E3.32866
G1 X225.659 Y224.763 E3.33503
G1 X218.83 Y231.148 E3.56824
G1 X216.932 Y233.086 E3.63591
G1 X213.25 Y237.182 E3.7733
G1 X210.184 Y240.976 E3.89498
G1 X209.947 Y241.239 E3.90381
G1 X208.728 Y242.446 E3.9466
G1 X208.305 Y242.798 E3.96033
G1 X206.888 Y243.785 E4.00341
G1 X206.408 Y244.061 E4.01722
G1 X204.835 Y244.792 E4.06049
G1 X204.317 Y244.98 E4.07423
G1 X202.665 Y245.424 E4.11691
G1 X202.096 Y245.523 E4.13131
G1 X200.199 Y245.679 E4.17879
G1 X199.659 Y245.678 E4.19226
G1 X197.914 Y245.526 E4.23596
G1 X197.372 Y245.431 E4.24968
G1 X195.713 Y244.991 E4.2925
G1 X195.191 Y244.803 E4.30634
G1 X193.628 Y244.081 E4.34929
G1 X193.151 Y243.809 E4.36298
G1 X191.73 Y242.827 E4.40607
G1 X191.302 Y242.472 E4.41994
G1 X190.072 Y241.259 E4.46304
G1 X189.821 Y240.981 E4.47238
G1 X187.433 Y237.998 E4.5677
G1 X183.788 Y233.855 E4.70535
G1 X179.954 Y229.962 E4.84165
G1 X174.929 Y225.393 E5.01107
G1 X174.734 Y225.199 E5.01793
G1 X168.865 Y218.86 E5.23342
G1 X166.93 Y216.972 E5.30086
G1 X162.84 Y213.305 E5.43789
G1 X158.444 Y209.665 E5.58026
G1 X158.185 Y209.425 E5.58907
G1 X157.526 Y208.744 E5.61271
G1 X157.201 Y208.349 E5.62547
G1 X156.222 Y206.945 E5.66816
G1 X155.947 Y206.469 E5.68188
G1 X155.216 Y204.903 E5.72499
G1 X155.027 Y204.386 E5.73872
G1 X154.579 Y202.732 E5.78146
G1 X154.478 Y202.148 E5.79625
G1 X154.319 Y200.145 E5.84637
G1 X154.321 Y199.612 E5.85967
G1 X154.475 Y197.856 E5.90364
G1 X154.571 Y197.31 E5.91747
G1 X155.014 Y195.651 E5.9603
G1 X155.202 Y195.132 E5.97407
G1 X155.928 Y193.565 E6.01715
G1 X156.202 Y193.087 E6.0309
G1 X157.18 Y191.676 E6.07372
G1 X157.533 Y191.25 E6.08752
G1 X158.755 Y190.013 E6.1309
G1 X159.035 Y189.761 E6.14029
G1 X162.052 Y187.352 E6.2366
G1 X166.176 Y183.733 E6.37347
G1 X170.073 Y179.903 E6.50977
G1 X174.161 Y175.418 E6.66115
G1 X174.27 Y175.304 E6.66508
G1 F1500 E0.16508
G0 F3600 X176.112 Y177.038
G0 X176.171 Y177.093
G0 X186.142 Y186.484
G0 X186.2 Y186.539
G0 X186.372 Y186.701
;TYPE:SUPPORT
G1 F1500 E6.66508
G1 F1350 X187.271 Y185.771 E6.69735
G1 X187.582 Y185.527 E6.70721
G1 X187.831 Y185.338 E6.71501
G1 X188.149 Y185.095 E6.72499
G1 X189.639 Y183.981 E6.7714
G1 X191.99 Y182.699 E6.8382
G1 X194.679 Y181.685 E6.90989
G1 X194.941 Y181.591 E6.91683
G1 X195.278 Y181.527 E6.92539
G1 X195.664 Y181.469 E6.93512
G1 X197.225 Y181.149 E6.97487
G1 X197.767 Y181.038 E6.98867
G1 X197.767 Y181.037 E6.9887
G1 X197.787 Y181.034 E6.9892
G1 X198.504 Y181.004 E7.0071
G1 X198.902 Y180.992 E7.01704
G1 X199.125 Y180.984 E7.0226
G1 X200.701 Y180.932 E7.06194
G1 X201.622 Y181.027 E7.08503
G1 X201.695 Y181.037 E7.08687
G1 X201.959 Y181.073 E7.09352
G1 X203.413 Y181.228 E7.12999
G1 X206.183 Y181.955 E7.20143
G1 X206.329 Y181.997 E7.20522
G1 X206.462 Y182.036 E7.20868
G1 X209.146 Y183.243 E7.28209
G1 X209.805 Y183.685 E7.30189
G1 X210.093 Y183.87 E7.31042
G1 X211.236 Y184.619 E7.34451
G1 X211.588 Y184.82 E7.35462
G1 X212.654 Y185.77 E7.39024
G1 X213.732 Y186.731 E7.42627
G1 X215.613 Y189.004 E7.49986
G1 X215.679 Y189.117 E7.50313
G1 X215.855 Y189.408 E7.51161
G1 X216.235 Y190.047 E7.53016
G1 X216.335 Y190.219 E7.53512
G1 X216.62 Y190.697 E7.549
G1 X217.106 Y191.515 E7.57274
G1 X218.194 Y194.206 E7.64514
G1 X218.785 Y196.709 E7.7093
G1 X218.87 Y197.071 E7.71857
G1 X219.097 Y199.974 E7.79121
G1 X218.935 Y202.105 E7.84452
G1 X218.912 Y202.404 E7.852
G1 X218.876 Y202.866 E7.86356
G1 X218.192 Y205.767 E7.93791
G1 X217.108 Y208.463 E8.0104
G1 X217.081 Y208.505 E8.01164
G1 X216.839 Y208.887 E8.02292
G1 X215.793 Y210.694 E8.07501
G1 X215.652 Y210.932 E8.08191
G1 X214.478 Y212.367 E8.12816
G1 X214.225 Y212.675 E8.1381
G1 X213.866 Y213.113 E8.15223
G1 X213.769 Y213.231 E8.15604
G1 X213.365 Y213.593 E8.16957
G1 X213.364 Y213.592 E8.1696
G1 X212.018 Y214.769 E8.21421
G1 X211.673 Y215.101 E8.22615
G1 X211.657 Y215.116 E8.2267
G1 X211.63 Y215.14 E8.2276
G1 X211.055 Y215.515 E8.24472
G1 X210.571 Y215.816 E8.25894
G1 X210.301 Y215.998 E8.26706
G1 X209.515 Y216.514 E8.29052
G1 X206.448 Y217.966 E8.37516
G1 X205.151 Y218.323 E8.40872
G1 X204.153 Y218.582 E8.43444
G1 X203.785 Y218.695 E8.44404
G1 X200.634 Y219.063 E8.52318
G1 X200.436 Y219.063 E8.52812
G1 X198.808 Y218.99 E8.56877
G1 X198.423 Y218.973 E8.57838
G1 X197.812 Y218.959 E8.59363
G1 X197.708 Y218.947 E8.59624
G1 X197.531 Y218.914 E8.60073
G1 X197.531 Y218.915 E8.60076
G1 X195.378 Y218.482 E8.65554
G1 X194.916 Y218.396 E8.66726
G1 X192.026 Y217.332 E8.74408
G1 X190.674 Y216.599 E8.78245
G1 X189.981 Y216.147 E8.80309
G1 X189.655 Y216.043 E8.81162
G1 X188.449 Y215.133 E8.84931
G1 X187.592 Y214.484 E8.87613
G1 X187.308 Y214.268 E8.88503
G1 X186.461 Y213.389 E8.91548
G1 X185.282 Y212.161 E8.95794
G1 X183.58 Y209.742 E9.03172
G1 X183.459 Y209.497 E9.03854
G1 X182.91 Y208.362 E9.06999
G1 X182.895 Y208.303 E9.07151
G1 X182.45 Y207.45 E9.09551
G1 X181.673 Y205.189 E9.15515
G1 X181.422 Y204.374 E9.17642
G1 X181.346 Y203.94 E9.18741
G1 X181.148 Y202.666 E9.21957
G1 X181.048 Y201.995 E9.2365
G1 X180.959 Y201.363 E9.25242
G1 X180.96 Y198.563 E9.32226
G1 X180.983 Y198.404 E9.32627
G1 X181.327 Y196.332 E9.37866
G1 X181.351 Y196.11 E9.38423
G1 X181.417 Y195.624 E9.39647
G1 X181.769 Y194.511 E9.42559
G1 X182.298 Y192.849 E9.4691
G1 X183.534 Y190.353 E9.53857
G1 X184.068 Y189.568 E9.56226
G1 X185.261 Y187.87 E9.61402
G1 X186.372 Y186.701 E9.65425
G0 F3600 X186.62 Y186.674
G1 F1350 X186.62 Y213.323 E10.31902
G0 F3600 X186.577 Y213.28
G1 F1350 X213.474 Y213.28 E10.98996
G0 F3600 X213.28 Y213.455
G1 F1350 X213.28 Y186.543 E11.66129
G0 F3600 X213.367 Y186.62
G1 F1350 X186.673 Y186.62 E12.32717
G0 F3600 X189.286 Y184.444
G1 F1350 X189.286 Y215.564 E13.10346
G0 F3600 X189.876 Y215.946
G1 F1350 X210.089 Y215.946 E13.60768
G0 F3600 X210.614 Y215.602
G1 F1350 X210.614 Y184.403 E14.38594
G0 F3600 X209.927 Y183.954
G1 F1350 X190.02 Y183.954 E14.88252
G0 F3600 X191.952 Y182.9
G1 F1350 X191.952 Y217.11 E15.73589
G0 F3600 X194.618 Y218.117
G1 F1350 X194.618 Y181.879 E16.63985
G0 F3600 X197.284 Y181.3
G1 F1350 X197.284 Y218.701 E17.57283
G0 F3600 X196.84 Y218.612
G1 F1350 X203.12 Y218.612 E17.72948
G0 F3600 X202.616 Y218.671
G1 F1350 X202.616 Y181.304 E18.66161
G0 F3600 X202.47 Y181.288
G1 F1350 X197.345 Y181.288 E18.78945
G0 F3600 X199.95 Y181.117
G1 F1350 X199.95 Y218.88 E19.73145
G0 F3600 X205.282 Y218.122
G1 F1350 X205.282 Y181.885 E20.63539
G0 F3600 X207.948 Y182.881
G1 F1350 X207.948 Y217.079 E21.48846
G0 F3600 X215.654 Y210.614
G1 F1350 X184.388 Y210.614 E22.26839
G0 F3600 X183.954 Y209.995
G1 F1350 X183.954 Y190.02 E22.76667
G0 F3600 X184.462 Y189.286
G1 F1350 X215.595 Y189.286 E23.54329
G0 F3600 X215.946 Y189.874
G1 F1350 X215.946 Y210.112 E24.04813
G0 F3600 X217.143 Y207.948
G1 F1350 X182.89 Y207.948 E24.90257
G0 F3600 X181.874 Y205.282
G1 F1350 X218.142 Y205.282 E25.80728
G0 F3600 X218.612 Y203.29
G1 F1350 X218.612 Y196.667 E25.97249
G0 F3600 X218.726 Y197.284
G1 F1350 X181.331 Y197.284 E26.90531
G0 F3600 X181.288 Y197.543
G1 F1350 X181.288 Y202.523 E27.02954
G0 F3600 X181.299 Y202.616
G1 F1350 X218.734 Y202.616 E27.96336
G0 F3600 X218.935 Y199.95
G1 F1350 X181.12 Y199.95 E28.90666
G0 F3600 X181.903 Y194.618
G1 F1350 X218.129 Y194.618 E29.81032
G0 F3600 X217.11 Y191.952
G1 F1350 X182.921 Y191.952 E30.66317
G1 F1500 E24.16317
G0 F3600 X182.563 Y191.773
G0 X181.413 Y191.205
G0 X180.799 Y192.264
G0 X180.891 Y192.301
;TYPE:WALL-INNER
G1 F1500 E30.66317
G1 F1350 X179.94 Y195.308 E30.74184
G1 X179.461 Y198.412 E30.82019
G1 X179.4 Y200.001 E30.85985
G1 X179.461 Y201.59 E30.89952
G1 X179.941 Y204.696 E30.97792
G1 X180.893 Y207.703 E31.0566
G1 X182.293 Y210.53 E31.13529
G1 X184.107 Y213.109 E31.21395
G1 X186.295 Y215.382 E31.29265
G1 X188.804 Y217.293 E31.37132
G1 X191.575 Y218.8 E31.45
G1 X194.543 Y219.865 E31.52866
G1 X197.639 Y220.466 E31.60734
G1 X200.791 Y220.586 E31.68602
G1 X203.924 Y220.224 E31.76469
G1 X206.966 Y219.389 E31.84338
G1 X209.842 Y218.098 E31.92202
G1 X212.492 Y216.384 E32.00075
G1 X214.845 Y214.284 E32.07942
G1 X216.852 Y211.85 E32.15812
G1 X218.464 Y209.139 E32.23679
G1 X219.642 Y206.213 E32.31548
G1 X220.363 Y203.119 E32.39472
G1 X220.6 Y199.974 E32.4734
G1 X220.354 Y196.829 E32.55209
G1 X219.631 Y193.759 E32.63077
G1 X218.449 Y190.837 E32.70939
G1 X216.851 Y188.148 E32.78742
G1 X214.842 Y185.712 E32.86619
G1 X212.49 Y183.615 E32.94479
G1 X209.84 Y181.901 E33.02352
G1 X206.962 Y180.609 E33.10221
G1 X203.92 Y179.775 E33.1809
G1 X200.787 Y179.414 E33.25957
G1 X197.635 Y179.534 E33.33825
G1 X194.539 Y180.136 E33.41693
G1 X191.571 Y181.202 E33.49559
G1 X188.8 Y182.709 E33.57428
G1 X186.292 Y184.62 E33.65293
G1 X184.105 Y186.892 E33.7316
G1 X182.291 Y189.475 E33.81033
G1 X180.891 Y192.301 E33.889
G0 F3600 X180.799 Y192.264
G0 X169.528 Y190.714
G0 X169.475 Y190.63
G1 F1350 X171.024 Y186.662 E33.99526
G1 X172.794 Y183.344 E34.08907
G1 X174.952 Y180.248 E34.18321
G1 X177.459 Y177.429 E34.27732
G1 X180.288 Y174.921 E34.37162
G1 X183.372 Y172.778 E34.4653
G1 X186.717 Y170.999 E34.55981
G1 X190.673 Y169.462 E34.66568
G1 X190.524 Y167.351 E34.71847
G1 X190.689 Y165.744 E34.75877
G1 X191.129 Y164.181 E34.79927
G1 X191.827 Y162.725 E34.83955
G1 X192.769 Y161.402 E34.88007
G1 X193.917 Y160.268 E34.92032
G1 X195.253 Y159.343 E34.96085
G1 X196.72 Y158.663 E35.00119
G1 X198.285 Y158.245 E35.0416
G1 X199.915 Y158.1 E35.08242
G1 X200.085 Y158.1 E35.08666
G1 X201.715 Y158.245 E35.12748
G1 X203.28 Y158.663 E35.16789
G1 X204.747 Y159.343 E35.20822
G1 X206.083 Y160.268 E35.24876
G1 X207.231 Y161.402 E35.28901
G1 X208.173 Y162.725 E35.32952
G1 X208.871 Y164.181 E35.3698
G1 X209.311 Y165.744 E35.4103
G1 X209.476 Y167.351 E35.4506
G1 X209.327 Y169.462 E35.50339
G1 X213.288 Y171.001 E35.6094
G1 X216.628 Y172.778 E35.70377
G1 X219.712 Y174.921 E35.79745
G1 X222.541 Y177.429 E35.89176
G1 X225.048 Y180.248 E35.98586
G1 X227.206 Y183.344 E36.08
G1 X228.975 Y186.661 E36.17378
G1 X230.525 Y190.63 E36.28007
G1 X232.631 Y190.477 E36.33274
G1 X234.242 Y190.641 E36.37314
G1 X235.809 Y191.079 E36.41372
G1 X237.261 Y191.772 E36.45386
G1 X238.588 Y192.715 E36.49447
G1 X239.726 Y193.866 E36.53484
G1 X240.647 Y195.19 E36.57507
G1 X241.332 Y196.664 E36.61562
G1 X241.753 Y198.227 E36.656
G1 X241.9 Y199.857 E36.69682
G1 X241.9 Y200.143 E36.70396
G1 X241.753 Y201.773 E36.74478
G1 X241.332 Y203.336 E36.78516
G1 X240.647 Y204.81 E36.82571
G1 X239.726 Y206.134 E36.86594
G1 X238.588 Y207.285 E36.90632
G1 X237.261 Y208.228 E36.94693
G1 X235.809 Y208.921 E36.98706
G1 X234.242 Y209.359 E37.02765
G1 X232.631 Y209.523 E37.06804
G1 X230.525 Y209.37 E37.12071
G1 X228.978 Y213.334 E37.22686
G1 X227.206 Y216.656 E37.32078
G1 X225.048 Y219.752 E37.41492
G1 X222.541 Y222.571 E37.50902
G1 X219.712 Y225.079 E37.60333
G1 X216.626 Y227.224 E37.69708
G1 X213.257 Y229.011 E37.79221
G1 X209.327 Y230.538 E37.89739
G1 X209.476 Y232.649 E37.95018
G1 X209.311 Y234.256 E37.99048
G1 X208.871 Y235.819 E38.03098
G1 X208.173 Y237.275 E38.07126
G1 X207.231 Y238.598 E38.11177
G1 X206.083 Y239.732 E38.15202
G1 X204.747 Y240.657 E38.19256
G1 X203.28 Y241.337 E38.23289
G1 X201.715 Y241.755 E38.2733
G1 X200.085 Y241.9 E38.31412
G1 X199.915 Y241.9 E38.31836
G1 X198.285 Y241.755 E38.35918
G1 X196.72 Y241.337 E38.39959
G1 X195.253 Y240.657 E38.43993
G1 X193.917 Y239.732 E38.48046
G1 X192.769 Y238.598 E38.52071
G1 X191.827 Y237.275 E38.56123
G1 X191.129 Y235.819 E38.60151
G1 X190.689 Y234.256 E38.64201
G1 X190.524 Y232.649 E38.68231
G1 X190.673 Y230.538 E38.7351
G1 X186.717 Y229.001 E38.84097
G1 X183.372 Y227.222 E38.93548
G1 X180.288 Y225.079 E39.02916
G1 X177.459 Y222.571 E39.12346
G1 X174.952 Y219.752 E39.21757
G1 X172.794 Y216.656 E39.31171
G1 X171.022 Y213.334 E39.40563
G1 X169.475 Y209.37 E39.51178
G1 X167.369 Y209.523 E39.56445
G1 X165.758 Y209.359 E39.60484
G1 X164.191 Y208.921 E39.64543
G1 X162.739 Y208.228 E39.68556
G1 X161.412 Y207.285 E39.72617
G1 X160.274 Y206.134 E39.76655
G1 X159.353 Y204.81 E39.80678
G1 X158.668 Y203.336 E39.84733
G1 X158.247 Y201.773 E39.88771
G1 X158.1 Y200.143 E39.92853
G1 X158.1 Y199.857 E39.93566
G1 X158.247 Y198.227 E39.97649
G1 X158.668 Y196.664 E40.01687
G1 X159.353 Y195.19 E40.05741
G1 X160.274 Y193.866 E40.09765
G1 X161.412 Y192.715 E40.13802
G1 X162.739 Y191.772 E40.17863
G1 X164.191 Y191.079 E40.21877
G1 X165.758 Y190.641 E40.25935
G1 X167.369 Y190.477 E40.29975
G1 X169.475 Y190.63 E40.35242
G0 F3600 X169.528 Y190.714
G0 X168.637 Y196.268
G0 X168.608 Y196.363
G1 F1350 X167.976 Y196.229 E40.36854
G1 X167.334 Y196.202 E40.38457
G1 X166.695 Y196.285 E40.40064
G1 X166.078 Y196.475 E40.41674
G1 X165.502 Y196.765 E40.43283
G1 X164.984 Y197.15 E40.44893
G1 X164.538 Y197.616 E40.46502
G1 X164.178 Y198.15 E40.48109
G1 X163.914 Y198.739 E40.49719
G1 X163.752 Y199.362 E40.51324
G1 X163.698 Y200.005 E40.52934
G1 X163.753 Y200.648 E40.54544
G1 X163.918 Y201.271 E40.56152
G1 X164.184 Y201.859 E40.57761
G1 X164.545 Y202.392 E40.59367
G1 X164.993 Y202.858 E40.6098
G1 X165.511 Y203.24 E40.62585
G1 X166.087 Y203.529 E40.64193
G1 X166.704 Y203.717 E40.65802
G1 X167.345 Y203.799 E40.67414
G1 X167.988 Y203.77 E40.69019
G1 X168.618 Y203.634 E40.70627
G1 X169.217 Y203.392 E40.72239
G1 X169.765 Y203.053 E40.73846
G1 X170.248 Y202.626 E40.75454
G1 X170.652 Y202.125 E40.7706
G1 X170.967 Y201.562 E40.78669
G1 X171.181 Y200.952 E40.80282
G1 X171.288 Y200.315 E40.81893
G1 X171.287 Y199.673 E40.83494
G1 X171.177 Y199.038 E40.85102
G1 X170.963 Y198.429 E40.86712
G1 X170.646 Y197.866 E40.88324
G1 X170.241 Y197.366 E40.89929
G1 X169.756 Y196.94 E40.91539
